teeny/outline/alarm.svg

<svg width="15" height="15" viewBox="0 0 15 15" fill="none" xmlns="http://www.w3.org/2000/svg">
<path d="M0.5 3.5L3.5 0.5M11.5 0.5L14.5 3.5M7.5 5V8.5H10M7.5 2.5C4.18629 2.5 1.5 5.18629 1.5 8.5C1.5 11.8137 4.18629 14.5 7.5 14.5C10.8137 14.5 13.5 11.8137 13.5 8.5C13.5 5.18629 10.8137 2.5 7.5 2.5Z" stroke="black"/>
</svg>

<svg viewBox="0 0 15 15" xmlns="http://www.w3.org/2000/svg"><path fill="none" stroke="#000" d="M.5 3.5l3-3m8 0l3 3M7.5 5v3.5H10m-2.5-6c-3.32 0-6 2.68-6 6 0 3.31 2.68 6 6 6 3.31 0 6-2.69 6-6 0-3.32-2.69-6-6-6Z"/></svg>
